X:426
T: MIT FROHEM MUTH UND HEITERM SINN
N: E0352A
O: Europa, Mitteleuropa, Deutschland
R: historisches Lied, Krieg (1815)
M: 4/4
L: 1/8
K: Bb
B2 | F2F2F2B2 | G2G2G2
c2 | A2F2G2A2 | B4z2
B2 | F2F2F2B2 | G2G2G2
c2 | A2F2G2A2 | B4z2
B2 | c2c2c2A2 | B2d2d2
B2 | c2c2c2A2 | B2d2d2
F2 | B4dcBA | G4e2
e2 | f2f2f2f2 | B4z2
f2 | d2f2d2f2 | gfede2
e2 | c2e2c2e2 | fedcd2
F2 | B4dcBA | G4e2
e2 | f2f2f2f2 | B4z2

